images/icon-pin.svg

<svg height="20" viewBox="0 0 20 20" width="20" xmlns="http://www.w3.org/2000/svg"><path d="m9.7951088 16.004297.3618732 2.3446608h.0768836l.360717-2.3446608.1734217-3.8592099h-1.14284872zm5.6073002-4.6702452-.3873083-1.53593778c-.0114858-.05818763-.0330023-.11393485-.063588-.16475057-.0106295-.02111996-.0242591-.04059075-.040465-.05780722-.0319886-.03837952-.0712886-.07001602-.1156145-.09306962l-.0751494-.03988698c-.0260132-.01387373-.0526045-.02659132-.080352-.03988698s-.0578072-.02659132-.0913354-.03873084c-.0335282-.01213951-.0711029-.02312289-.1034749-.03295011-.0323721-.00982723-.0757275-.02543518-.1156145-.03641855-.0398869-.01098337-.0832424-.02601325-.1231293-.03815277-.039887-.01213951-.0901793-.02370096-.135847-.03352818-.0456677-.00982723-.0948038-.02254482-.14394-.03237204-.0618537-.01387374-.1231293-.02312289-.184405-.03410626-.0953819-.01907639-.1913419-.04219927-.2855677-.06358794l-.0774616-.01907639c-.0601448-.01424336-.1194026-.03200138-.1774682-.05318264-.0571277-.020119-.1125983-.04466523-.1659067-.07341517-.0529106-.02722897-.1033879-.05894652-.1508769-.09480383-.0476162-.03525224-.0926297-.07389048-.1346908-.11561444-.0420712-.0402889-.080741-.08398571-.1156144-.13064432-.0347046-.04561775-.0660051-.09372767-.0936477-.14393997-.0264986-.0506695-.0487347-.1034562-.0664783-.15781371-.0178886-.05445546-.0319887-.11008317-.0421993-.16648479-.0098272-.05780722-.0179202-.11561444-.024279-.17342166-.0024017-.0139588-.0039461-.02805161-.0046246-.04219927v.06185373c.0003291-.00616171.0003291-.0123366 0-.01849831v-.01965446-.02601324c.0008396-.01135326.0008396-.02275301 0-.03410626v-.0416212c0-.01445181 0-.0352624-.0028903-.05260457-.0028904-.01734217-.0040466-.0416212-.0046246-.06185372-.0005781-.02023253-.0028904-.04855807-.0046246-.07341517-.0017342-.02485711 0-.05376072-.0046246-.08150818-.0046246-.02774747-.0040465-.05780722-.0046246-.09075733-.000578-.03295012-.0052026-.06532216-.0063588-.09827228-.0011561-.03295011-.0057807-.06821251-.0057807-.10347492 0-.0352624-.0063588-.07110288-.0075149-.10867757-.0011562-.03757469-.0052027-.07572746-.0063588-.11561444-.0011562-.03988698-.0052027-.07746167-.0075149-.11561443-.0023123-.03815277-.0052027-.07861782-.0086711-.11561444-.0034685-.03699662-.0040465-.08093011-.0063588-.12081709s-.0057807-.08266432-.0092492-.12370745c-.0034684-.04104312-.0156079-.08382046-.0173421-.12601973-.0017343-.04219927-.0057808-.08497662-.0086711-.12717589-.0028904-.04219927-.0046246-.08555468-.0063588-.12833202s-.0063588-.08671083-.0109834-.13006624c-.0046246-.04335542-.0046246-.0872889-.008093-.13122239s-.0057807-.08671083-.008093-.12948817-.0057807-.08786697-.008093-.13064432c-.0023123-.04277734-.0057807-.08555468-.008093-.12891009-.0023123-.04335542-.0057808-.08497661-.0086711-.12717588-.0028904-.04219927-.0028904-.08093011-.0052027-.12255131s-.0046245-.08035203-.0075149-.12023901-.0040465-.07746168-.0040465-.11619251c0-.03873084-.0034684-.0728371-.0057807-.10983372s-.0046246-.06936866-.007515-.10520914c-.0028903-.03584047-.0034684-.06532215-.0069368-.09711612-.0034685-.03179397-.0034685-.0624318-.0046246-.09306963-.0011562-.03063782-.0028904-.05780722-.0052027-.08497661s0-.05318264-.0057807-.07977396 0-.04971421-.0040465-.07399324 0-.04508963-.0028904-.06936866c-.0034684-.04046506-.0057807-.08093011-.0104053-.12081709-.0055528-.04027621-.0005737-.08130403.0144519-.11908287.0064793-.01655426.0138114-.03276197.0219667-.04855806.0132957-.03179398.0289036-.06358795.0445116-.09422577.0343354-.06186443.0750199-.1199851.1213951-.17342166.0455646-.05439002.0950239-.10539486.1479865-.15261106.0530364-.04870746.1111811-.09154079.1734217-.12775395.0369966-.02196674.0751493-.03988698.1156144-.05780722.0528915-.02471891.1075794-.04539596.1635944-.06185372.0404651-.01156145.0826643-.02427903.1231294-.03352819l.0543388-.01618602c.0231229-.00635879.0462458-.0144518.0676344-.02196674.0213887-.00751494.0468239-.01792024.0693687-.02774747l.0820862-.03468433c.0392058-.01937237.0767191-.04199636.112146-.06763445.0156108-.0117679.0299479-.02513628.0427774-.03988698.0763326-.06903934.1268925-.16200437.1433619-.26360091l.3809496-1.53593781c-.0099868-.20398485-.1826782-.36170453-.3867303-.3532021h-6.9305075c-.20493582-.00981517-.37906681.14827404-.38904258.3532021l.38904258 1.53535973c.01600318.10136763.06593557.19430301.14162769.26360092.01320486.01459031.02771718.02794164.04335541.03988698.03638737.0258703.0750905.04831811.11561444.06705638.02659132.01329566.05318264.02370096.08150818.0352624s.04393349.01965445.06763445.02774746c.02370096.00809302.04508963.01560795.06879059.02138868.02370096.00578072.03468433.01098337.05376071.01618602.0416212.00867108.08266432.02196674.12370745.03410626.05584469.0164066.11034431.03708554.16301635.06185372.03953372.01721009.07812614.0365063.11561444.05780722.06201065.03634003.12012305.07895579.17342166.12717588.05268103.04752929.1019397.09871967.14740841.15318913.04628504.05337734.08678352.11150912.12081708.17342166.01618603.03063782.03179397.06243179.04508963.09422576.00832172.01571503.01565813.03193235.02196675.04855807.01567921.03741026.02048791.07848457.01387373.1185048-.00289036.04046505-.00635879.0809301-.00867108.12139515 0 .02427904-.00289036.04624578-.00404651.0687906-.00115614.02254481-.0040465.0497142-.00578072.07457131-.00173422.0248571 0 .05318264-.00462458.07977396-.00462457.02659132-.0040465.05780722-.00462457.08497661-.00057808.02716939-.00462458.0624318-.00520265.09249155-.00057808.03005975-.00462458.06474409-.00693687.09711613s-.00404651.06936866-.00578072.10520914c-.00173422.03584047-.00520265.07283709-.00751494.10983371s-.00404651.0768836-.00693687.11561444-.00578072.07977396-.00751494.12023902c-.00173421.04046505-.00578072.08208625-.00809301.1225513s-.00635879.08439854-.00809301.12717588c-.00173421.04277734-.00578072.08555468-.00867108.12833203-.00289036.04277734-.00520265.08671082-.00809301.13064431s-.00462458.08671083-.00751494.13006624c-.00289036.04335542-.00520265.08613276-.00809301.13006625-.00289036.04393348-.00635879.08671082-.00809301.13064431s-.00520265.08497661-.00867108.12833203c-.00346844.04335541-.00578073.08439854-.00867109.12717588s-.00462457.08266432-.00751493.12486359c-.00289037.04219927-.00520265.08208625-.00693687.12370745s-.01156144.08497661-.01156144.12370745c0 .03873083-.0063588.07861781-.00809302.11561443-.00173421.03699662-.00462457.07803975-.00809301.11561444-.00346843.03757469-.00462457.07514939-.00693686.11214601s-.00346844.07225902-.0063588.10925564-.00462457.06879059-.00635879.10347492-.00404651.06590023-.00578072.0976942c-.00173422.03179397-.00462458.06069758-.00520265.09075733-.00057807.03005976-.00462458.05433879-.00578072.08150818-.00115615.0271694-.00346844.04913614-.00346844.07341517s-.00173421.04451156-.00173421.0664783c0 .02196675 0 .03584048-.00289036.05260457-.00289037.01676409 0 .02774747 0 .0416212v.03352819.02659132.01965445.01849831-.06185372c0 .01387373-.00404651.02832553-.00462458.04219927-.0063588.05780722-.01271759.11561443-.02427903.17342165-.01009041.05637283-.02399611.11199563-.0416212.16648479-.0176695.05419168-.04031064.10663398-.06763445.15665757-.02665714.05059183-.05739691.0989248-.09191347.14451804-.03535017.0464496-.07398751.09030299-.11561444.13122239-.04171449.04209786-.08675756.08076145-.13469082.11561444-.0476139.03567581-.09807557.06738353-.15087684.09480384-.05300756.02895496-.10830284.05350916-.16532865.07341516-.05858413.02079706-.1182053.03854835-.17862431.05318265l-.07919589.01849831c-.09422576.02196674-.1890296.04508963-.28498958.06416601-.06185373.00982723-.12255131.01965445-.1849831.03295011-.04798.01098337-.09595999.02196675-.14336191.03352819s-.09191347.0208106-.13584696.03352819l-.12428552.03584047c-.03873084.01156145-.0768836.02312289-.11561444.03699662s-.06879059.02370096-.10289685.03757469c-.03410626.01387374-.05780722.02485711-.0913354.03873084-.03352819.01387373-.05376072.02601325-.07977397.03988698l-.07572745.03988698c-.0441653.02280208-.08344151.05402667-.11561444.09191348-.01528588.01769063-.02847633.03708835-.03930891.05780722-.03082341.05123552-.05271639.10733628-.06474408.16590672l-.38730837 1.53593784c.01060065.2040148.1831698.3616451.38730837.3537801h9.62721423c.0988535.0042254.1953227-.0310754.2681017-.0981059.0727791-.0670305.1158804-.1602759.1197847-.2591427z" fill="#fafafa" fill-rule="evenodd"/></svg>

<?xml version="1.0" encoding="UTF-8" standalone="no"?>
<svg width="20px" height="20px" viewBox="0 0 20 20" version="1.1" xmlns="http://www.w3.org/2000/svg" xmlns:xlink="http://www.w3.org/1999/xlink">
    <!-- Generator: Sketch 41 (35326) - http://www.bohemiancoding.com/sketch -->
    <title>icon-pin</title>
    <desc>Created with Sketch.</desc>
    <defs></defs>
    <g id="Page-1" stroke="none" stroke-width="1" fill="none" fill-rule="evenodd">
        <g id="icon-pin" fill="#FAFAFA">
            <path d="M9.7951088,16.004297 L10.156982,18.3489578 L10.2338656,18.3489578 L10.5945826,16.004297 L10.7680043,12.1450871 L9.62515558,12.1450871 L9.7951088,16.004297 Z M15.402409,11.3340518 L15.0151007,9.79811402 C15.0036149,9.73992639 14.9820984,9.68417917 14.9515127,9.63336345 C14.9408832,9.61224349 14.9272536,9.5927727 14.9110477,9.57555623 C14.8790591,9.53717671 14.8397591,9.50554021 14.7954332,9.48248661 L14.7202838,9.44259963 C14.6942706,9.4287259 14.6676793,9.41600831 14.6399318,9.40271265 C14.6121843,9.38941699 14.5821246,9.37612133 14.5485964,9.36398181 C14.5150682,9.3518423 14.4774935,9.34085892 14.4451215,9.3310317 C14.4127494,9.32120447 14.369394,9.30559652 14.329507,9.29461315 C14.2896201,9.28362978 14.2462646,9.2685999 14.2063777,9.25646038 C14.1664907,9.24432087 14.1161984,9.23275942 14.0705307,9.2229322 C14.024863,9.21310497 13.9757269,9.20038738 13.9265907,9.19056016 C13.864737,9.17668642 13.8034614,9.16743727 13.7421857,9.1564539 C13.6468038,9.13737751 13.5508438,9.11425463 13.456618,9.09286596 L13.3791564,9.07378957 C13.3190116,9.05954621 13.2597538,9.04178819 13.2016882,9.02060693 C13.1445605,9.00048793 13.0890899,8.9759417 13.0357815,8.94719176 C12.9828709,8.91996279 12.9323936,8.88824524 12.8849046,8.85238793 C12.8372884,8.81713569 12.7922749,8.77849745 12.7502138,8.73677349 C12.7081426,8.69648459 12.6694728,8.65278778 12.6345994,8.60612917 C12.5998948,8.56051142 12.5685943,8.5124015 12.5409517,8.4621892 C12.5144531,8.4115197 12.492217,8.358733 12.4744734,8.30437549 C12.4565848,8.24992003 12.4424847,8.19429232 12.4322741,8.1378907 C12.4224469,8.08008348 12.4143539,8.02227626 12.4079951,7.96446904 C12.4055934,7.95051024 12.404049,7.93641743 12.4033705,7.92226977 L12.4033705,7.9841235 C12.4036996,7.97796179 12.4036996,7.9717869 12.4033705,7.96562519 L12.4033705,7.94597073 L12.4033705,7.91995749 C12.4042101,7.90860423 12.4042101,7.89720448 12.4033705,7.88585123 L12.4033705,7.84423003 C12.4033705,7.82977822 12.4033705,7.80896763 12.4004802,7.79162546 C12.3975898,7.77428329 12.3964336,7.75000426 12.3958556,7.72977174 C12.3952775,7.70953921 12.3929652,7.68121367 12.391231,7.65635657 C12.3894968,7.63149946 12.391231,7.60259585 12.3866064,7.57484839 C12.3819818,7.54710092 12.3825599,7.51704117 12.3819818,7.48409106 C12.3814038,7.45114094 12.3767792,7.4187689 12.375623,7.38581878 C12.3744669,7.35286867 12.3698423,7.31760627 12.3698423,7.28234386 C12.3698423,7.24708146 12.3634835,7.21124098 12.3623274,7.17366629 C12.3611712,7.1360916 12.3571247,7.09793883 12.3559686,7.05805185 C12.3548124,7.01816487 12.3507659,6.98059018 12.3484537,6.94243742 C12.3461414,6.90428465 12.343251,6.8638196 12.3397826,6.82682298 C12.3363141,6.78982636 12.3357361,6.74589287 12.3334238,6.70600589 C12.3311115,6.66611891 12.3276431,6.62334157 12.3241746,6.58229844 C12.3207062,6.54125532 12.3085667,6.49847798 12.3068325,6.45627871 C12.3050982,6.41407944 12.3010517,6.37130209 12.2981614,6.32910282 C12.295271,6.28690355 12.2935368,6.24354814 12.2918026,6.2007708 C12.2900684,6.15799346 12.2854438,6.11405997 12.2808192,6.07070456 C12.2761946,6.02734914 12.2761946,5.98341566 12.2727262,5.93948217 C12.2692578,5.89554868 12.2669455,5.85277134 12.2646332,5.809994 C12.2623209,5.76721666 12.2588525,5.72212703 12.2565402,5.67934968 C12.2542279,5.63657234 12.2507595,5.593795 12.2484472,5.55043959 C12.2461349,5.50708417 12.2426664,5.46546298 12.2397761,5.42326371 C12.2368857,5.38106444 12.2368857,5.3423336 12.2345734,5.3007124 C12.2322611,5.2590912 12.2299489,5.22036037 12.2270585,5.18047339 C12.2241681,5.14058641 12.223012,5.10301171 12.223012,5.06428088 C12.223012,5.02555004 12.2195436,4.99144378 12.2172313,4.95444716 C12.214919,4.91745054 12.2126067,4.8850785 12.2097163,4.84923802 C12.206826,4.81339755 12.2062479,4.78391587 12.2027795,4.7521219 C12.199311,4.72032793 12.199311,4.6896901 12.1981549,4.65905227 C12.1969987,4.62841445 12.1952645,4.60124505 12.1929522,4.57407566 C12.1906399,4.54690627 12.1929522,4.52089302 12.1871715,4.4943017 C12.1813908,4.46771038 12.1871715,4.44458749 12.183125,4.42030846 C12.1790785,4.39602943 12.183125,4.37521883 12.1802346,4.3509398 C12.1767662,4.31047474 12.1744539,4.27000969 12.1698293,4.23012271 C12.1642765,4.1898465 12.1692556,4.14881868 12.1842812,4.11103984 C12.1907605,4.09448558 12.1980926,4.07827787 12.2062479,4.06248178 C12.2195436,4.0306878 12.2351515,3.99889383 12.2507595,3.96825601 C12.2850949,3.90639158 12.3257794,3.84827091 12.3721546,3.79483435 C12.4177192,3.74044433 12.4671785,3.68943949 12.5201411,3.64222329 C12.5731775,3.59351583 12.6313222,3.5506825 12.6935628,3.51446934 C12.7305594,3.4925026 12.7687121,3.47458236 12.8091772,3.45666212 C12.8620687,3.43194321 12.9167566,3.41126616 12.9727716,3.3948084 C13.0132367,3.38324695 13.0554359,3.37052937 13.095901,3.36128021 L13.1502398,3.34509419 C13.1733627,3.3387354 13.1964856,3.33064239 13.2178742,3.32312745 C13.2392629,3.31561251 13.2646981,3.30520721 13.2872429,3.29537998 L13.3693291,3.26069565 C13.4085349,3.24132328 13.4460482,3.21869929 13.4814751,3.1930612 C13.4970859,3.1812933 13.511423,3.16792492 13.5242525,3.15317422 C13.6005851,3.08413488 13.651145,2.99116985 13.6676144,2.88957331 L14.048564,1.3536355 C14.0385772,1.14965065 13.8658858,0.991930974 13.6618337,1.0004334 L6.7313262,1.0004334 C6.52639038,0.990618225 6.35225939,1.14870744 6.34228362,1.3536355 L6.7313262,2.88899523 C6.74732938,2.99036286 6.79726177,3.08329824 6.87295389,3.15259615 C6.88615875,3.16718646 6.90067107,3.18053779 6.9163093,3.19248313 C6.95269667,3.21835343 6.9913998,3.24080124 7.03192374,3.25953951 C7.05851506,3.27283517 7.08510638,3.28324047 7.11343192,3.29480191 C7.14175746,3.30636335 7.15736541,3.31445636 7.18106637,3.32254937 C7.20476733,3.33064239 7.226156,3.33815732 7.24985696,3.34393805 C7.27355792,3.34971877 7.28454129,3.35492142 7.30361767,3.36012407 C7.34523887,3.36879515 7.38628199,3.38209081 7.42732512,3.39423033 C7.48316981,3.41063693 7.53766943,3.43131587 7.59034147,3.45608405 C7.62987519,3.47329414 7.66846761,3.49259035 7.70595591,3.51389127 C7.76796656,3.5502313 7.82607896,3.59284706 7.87937757,3.64106715 C7.9320586,3.68859644 7.98131727,3.73978682 8.02678598,3.79425628 C8.07307102,3.84763362 8.1135695,3.9057654 8.14760306,3.96767794 C8.16378909,3.99831576 8.17939703,4.03010973 8.19269269,4.0619037 C8.20101441,4.07761873 8.20835082,4.09383605 8.21465944,4.11046177 C8.23033865,4.14787203 8.23514735,4.18894634 8.22853317,4.22896657 C8.22564281,4.26943162 8.22217438,4.30989667 8.21986209,4.35036172 C8.21986209,4.37464076 8.21697173,4.3966075 8.21581558,4.41915232 C8.21465944,4.44169713 8.21176908,4.46886652 8.21003486,4.49372363 C8.20830064,4.51858073 8.21003486,4.54690627 8.20541028,4.57349759 C8.20078571,4.60008891 8.20136378,4.63130481 8.20078571,4.6584742 C8.20020763,4.68564359 8.19616113,4.720906 8.19558306,4.75096575 C8.19500498,4.7810255 8.19095848,4.81570984 8.18864619,4.84808188 C8.1863339,4.88045392 8.18459968,4.91745054 8.18286547,4.95329102 C8.18113125,4.98913149 8.17766282,5.02612811 8.17535053,5.06312473 C8.17303824,5.10012135 8.17130402,5.14000833 8.16841366,5.17873917 C8.1655233,5.21747001 8.16263294,5.25851313 8.16089872,5.29897819 C8.15916451,5.33944324 8.155118,5.38106444 8.15280571,5.42152949 C8.15049342,5.46199454 8.14644692,5.50592803 8.1447127,5.54870537 C8.14297849,5.59148271 8.13893198,5.63426005 8.13604162,5.6770374 C8.13315126,5.71981474 8.13083897,5.76374822 8.12794861,5.80768171 C8.12505825,5.8516152 8.12332403,5.89439254 8.12043367,5.93774795 C8.11754331,5.98110337 8.11523102,6.02388071 8.11234066,6.0678142 C8.1094503,6.11174768 8.10598187,6.15452502 8.10424765,6.19845851 C8.10251343,6.242392 8.099045,6.28343512 8.09557657,6.32679054 C8.09210813,6.37014595 8.08979584,6.41118908 8.08690548,6.45396642 C8.08401512,6.49674376 8.08228091,6.53663074 8.07939055,6.57883001 C8.07650018,6.62102928 8.0741879,6.66091626 8.07245368,6.70253746 C8.07071946,6.74415866 8.06089224,6.78751407 8.06089224,6.82624491 C8.06089224,6.86497574 8.05453344,6.90486272 8.05279922,6.94185934 C8.05106501,6.97885596 8.04817465,7.01989909 8.04470621,7.05747378 C8.04123778,7.09504847 8.04008164,7.13262317 8.03776935,7.16961979 C8.03545706,7.20661641 8.03430091,7.24187881 8.03141055,7.27887543 C8.02852019,7.31587205 8.02678598,7.34766602 8.02505176,7.38235035 C8.02331754,7.41703468 8.02100525,7.44825058 8.01927104,7.48004455 C8.01753682,7.51183852 8.01464646,7.54074213 8.01406839,7.57080188 C8.01349032,7.60086164 8.00944381,7.62514067 8.00828767,7.65231006 C8.00713152,7.67947946 8.00481923,7.7014462 8.00481923,7.72572523 C8.00481923,7.75000426 8.00308502,7.77023679 8.00308502,7.79220353 C8.00308502,7.81417028 8.00308502,7.82804401 8.00019466,7.8448081 C7.99730429,7.86157219 8.00019466,7.87255557 8.00019466,7.8864293 L8.00019466,7.91995749 L8.00019466,7.94654881 L8.00019466,7.96620326 L8.00019466,7.98470157 L8.00019466,7.92284785 C8.00019466,7.93672158 7.99614815,7.95117338 7.99557008,7.96504712 C7.98921128,8.02285434 7.98285249,8.08066155 7.97129105,8.13846877 C7.96120064,8.1948416 7.94729494,8.2504644 7.92966985,8.30495356 C7.91200035,8.35914524 7.88935921,8.41158754 7.8620354,8.46161113 C7.83537826,8.51220296 7.80463849,8.56053593 7.77012193,8.60612917 C7.73477176,8.65257877 7.69613442,8.69643216 7.65450749,8.73735156 C7.612793,8.77944942 7.56774993,8.81811301 7.51981667,8.852966 C7.47220277,8.88864181 7.4217411,8.92034953 7.36893983,8.94776984 C7.31593227,8.9767248 7.26063699,9.001279 7.20361118,9.021185 C7.14502705,9.04198206 7.08540588,9.05973335 7.02498687,9.07436765 L6.94579098,9.09286596 C6.85156522,9.1148327 6.75676138,9.13795559 6.6608014,9.15703197 C6.59894767,9.1668592 6.53825009,9.17668642 6.4758183,9.18998208 C6.4278383,9.20096545 6.37985831,9.21194883 6.33245639,9.22351027 C6.28505447,9.23507171 6.24054292,9.24432087 6.19660943,9.25703846 L6.07232391,9.29287893 C6.03359307,9.30444038 5.99544031,9.31600182 5.95670947,9.32987555 C5.91797863,9.34374928 5.88791888,9.35357651 5.85381262,9.36745024 C5.81970636,9.38132398 5.7960054,9.39230735 5.76247722,9.40618108 C5.72894903,9.42005481 5.7087165,9.43219433 5.68270325,9.44606806 L5.6069758,9.48595504 C5.5628105,9.50875712 5.52353429,9.53998171 5.49136136,9.57786852 C5.47607548,9.59555915 5.46288503,9.61495687 5.45205245,9.63567574 C5.42122904,9.68691126 5.39933606,9.74301202 5.38730837,9.80158246 L5,11.3375203 C5.01060065,11.5415351 5.1831698,11.6991654 5.38730837,11.6913004 L15.0145226,11.6913004 C15.1133761,11.6955258 15.2098453,11.660225 15.2826243,11.5931945 C15.3554034,11.526164 15.3985047,11.4329186 15.402409,11.3340518 L15.402409,11.3340518 Z" id="icon:pin"></path>
        </g>
    </g>
</svg>
